polaris-icons/icons/newicons/CategoriesMajor.svg

<svg width="20" height="20" viewBox="0 0 20 20" fill="none" xmlns="http://www.w3.org/2000/svg">
<path fill-rule="evenodd" clip-rule="evenodd" d="M14.5 12.5V12H15C16.1046 12 17 11.1046 17 10V5C17 3.89543 16.1046 3 15 3H10C8.89543 3 8 3.89543 8 5V5.5H7.5C6.39543 5.5 5.5 6.39543 5.5 7.5V8H5C3.89543 8 3 8.89543 3 10V15C3 16.1046 3.89543 17 5 17H10C11.1046 17 12 16.1046 12 15V14.5H12.5C13.6046 14.5 14.5 13.6046 14.5 12.5ZM10 4.5H15C15.2761 4.5 15.5 4.72386 15.5 5V10C15.5 10.2761 15.2761 10.5 15 10.5H14.5V7.5C14.5 6.39543 13.6046 5.5 12.5 5.5H9.5V5C9.5 4.72386 9.72386 4.5 10 4.5ZM12 13H12.5C12.7761 13 13 12.7761 13 12.5V7.5C13 7.22386 12.7761 7 12.5 7H7.5C7.22386 7 7 7.22386 7 7.5V8H10C11.1046 8 12 8.89543 12 10V13ZM4.5 10C4.5 9.72386 4.72386 9.5 5 9.5H10C10.2761 9.5 10.5 9.72386 10.5 10V15C10.5 15.2761 10.2761 15.5 10 15.5H5C4.72386 15.5 4.5 15.2761 4.5 15V10Z" fill="black"/>
</svg>

<svg viewBox="0 0 20 20" fill="none" xmlns="http://www.w3.org/2000/svg"><path fill-rule="evenodd" clip-rule="evenodd" d="M14.5 12.5v-.5h.5a2 2 0 0 0 2-2v-5a2 2 0 0 0-2-2h-5a2 2 0 0 0-2 2v.5h-.5a2 2 0 0 0-2 2v.5h-.5a2 2 0 0 0-2 2v5a2 2 0 0 0 2 2h5a2 2 0 0 0 2-2v-.5h.5a2 2 0 0 0 2-2Zm-4.5-8h5a.5.5 0 0 1 .5.5v5a.5.5 0 0 1-.5.5h-.5v-3a2 2 0 0 0-2-2h-3v-.5a.5.5 0 0 1 .5-.5Zm2 8.5h.5a.5.5 0 0 0 .5-.5v-5a.5.5 0 0 0-.5-.5h-5a.5.5 0 0 0-.5.5v.5h3a2 2 0 0 1 2 2v3Zm-7.5-3a.5.5 0 0 1 .5-.5h5a.5.5 0 0 1 .5.5v5a.5.5 0 0 1-.5.5h-5a.5.5 0 0 1-.5-.5v-5Z" fill="#000"/></svg>
